X:16
T:"The Castleboy Jig"
C:Jig composed by Davy Rogers
L:1/8
Q:140
K:G
M:6/8
G |: gfg d2G | cAG FAB | gfg dBG | cdc BGd | gfg d2G | cAG FAc | BAB efg |1 agf g2G :|2 agf g2f | \
|: gBg eAA | gea fdf | gBg eAB | ecA FAf | gBg eAf | gea fBA | GAB efg |1 agf g2f :|2 agf g2 | \



